X:1
T: To Zanarkand
M: 4/4
L: 1/4
Q:1/4=160
K:C
[GE']3 B | E' ^F'[B G']2  |^F'2  E'2|  [^F D']3 [GE'] |[AC'D']2 [GB]2 | z4|
[GE']3 B | E' ^F'[B G']2  |^F'2  G'2|  [AA']3 [GG'] |[AA']2 [BD'B']2 | z4|
[GE']3 B | E' ^F'[B G']2  |^F'2  E'2|  [^F D']3 [GE'] |[AC'D']2 [GB]2 | 
z1 [GBG'] [AC'A']2 | [BE'B']2 [BE'B']2 | [BE'B']2 [BE'B']2 |A'2 D''2| [BE'G']3 G' | ^F' D' E'2 |
